;FLAVOR:Marlin
;TIME:15149
;Filament used: 12.1513m
;Layer height: 0.2
;MINX:23.452
;MINY:18.858
;MINZ:0.2
;MAXX:145.452
;MAXY:201.352
;MAXZ:23.4
;Generated with Cura_SteamEngine 5.2.2
M82 ;absolute extrusion mode
; Ender 3 S1 Start G-code
G92 E0 ; Reset Extruder
G28 ; Home all axes
G1 Z10.0 F3000 ; Move Z Axis up little to prevent scratching of Heat Bed
G1 X0 Y0

M104 S200
M190 S60
M109 S200

G1 X0.1 Y20 Z0.3 F5000.0 ; Move to start position
G1 X0.1 Y200.0 Z0.3 F1500.0 E15 ; Draw the first line
G1 X0.4 Y200.0 Z0.3 F5000.0 ; Move to side a little
G1 X0.4 Y20 Z0.3 F1500.0 E30 ; Draw the second line
G92 E0 ; Reset Extruder
G1 Z2.0 F3000 ; Move Z Axis up little to prevent scratching of Heat Bed
G1 X5 Y20 Z0.3 F5000.0 ; Move over to prevent blob squish

G92 E0
G92 E0
G1 F2400 E-0.8
;LAYER_COUNT:117
;LAYER:0
M107
M204 S2000
G0 F7500 X28.087 Y43.401 Z0.2
M204 S500
;TYPE:SKIRT
G1 F2400 E0
G1 F1500 X28.874 Y42.89 E0.03121
G1 X29.63 Y42.483 E0.05977
G1 X30.45 Y42.083 E0.09011
G1 X31.613 Y41.535 E0.13287
G1 X33.843 Y40.406 E0.21601
G1 X36.053 Y39.209 E0.2996
G1 X38.229 Y37.949 E0.38323
G1 X40.359 Y36.633 E0.46651
G1 X42.502 Y35.226 E0.55177
G1 X44.538 Y33.802 E0.63441
G1 X46.563 Y32.301 E0.71825
G1 X48.542 Y30.745 E0.80198
G1 X50.477 Y29.133 E0.88574
G1 X52.361 Y27.47 E0.96932
G1 X54.196 Y25.757 E1.05282
G1 X56.475 Y23.491 E1.15971
G1 X57.295 Y22.654 E1.19868
G1 X57.979 Y22.012 E1.22988
G1 X58.517 Y21.578 E1.25287
G1 X58.726 Y21.42 E1.26159
G1 X59.498 Y20.887 E1.29279
G1 X60.027 Y20.574 E1.31323
G1 X60.294 Y20.426 E1.32339
G1 X61.133 Y20.007 E1.35458
G1 X61.89 Y19.695 E1.38181
G1 X62.88 Y19.371 E1.41646
G1 X63.406 Y19.237 E1.43451
G1 X63.751 Y19.158 E1.44628
G1 X64.673 Y18.987 E1.47747
G1 X65.74 Y18.89 E1.51311
G1 X66.259 Y18.868 E1.53038
G1 X66.725 Y18.858 E1.54589
G1 X133.903 Y18.858 E3.78024
G1 X134.601 Y18.868 E3.80345
G1 X135.537 Y18.922 E3.83464
G1 X136.465 Y19.054 E3.86581
G1 X137.379 Y19.266 E3.89702
G1 X138.271 Y19.555 E3.92821
G1 X139.136 Y19.918 E3.95941
G1 X139.966 Y20.354 E3.99059
G1 X140.757 Y20.859 E4.0218
G1 X141.501 Y21.43 E4.053
G1 X142.194 Y22.062 E4.08419
G1 X142.831 Y22.75 E4.11538
G1 X143.406 Y23.491 E4.14657
G1 X143.917 Y24.277 E4.17775
G1 X144.359 Y25.105 E4.20897
G1 X144.728 Y25.967 E4.24016
G1 X145.023 Y26.857 E4.27134
G1 X145.241 Y27.769 E4.30253
G1 X145.381 Y28.697 E4.33375
G1 X145.438 Y29.546 E4.36205
G1 X145.452 Y30.175 E4.38297
G1 X145.451 Y109.321 E7.01538
G1 X145.44 Y110.028 E7.0389
G1 X145.385 Y110.964 E7.07008
G1 X145.251 Y111.893 E7.1013
G1 X145.038 Y112.806 E7.13248
G1 X144.809 Y113.532 E7.1578
G1 X143.829 Y116.296 E7.25534
G1 X143.047 Y118.729 E7.34034
G1 X142.354 Y121.113 E7.42291
G1 X141.723 Y123.54 E7.50632
G1 X141.142 Y126.062 E7.5924
G1 X140.662 Y128.459 E7.67371
G1 X140.231 Y130.974 E7.75858
G1 X139.878 Y133.452 E7.84183
G1 X139.597 Y135.924 E7.92457
G1 X139.38 Y138.486 E8.01009
G1 X139.24 Y140.946 E8.09204
G1 X139.168 Y143.503 E8.17712
G1 X139.168 Y145.993 E8.25994
G1 X139.24 Y148.55 E8.34502
G1 X139.381 Y151.033 E8.42774
G1 X139.593 Y153.523 E8.51086
G1 X139.881 Y156.055 E8.59561
G1 X140.232 Y158.524 E8.67856
G1 X140.661 Y161.024 E8.76293
G1 X141.298 Y164.177 E8.86991
G1 X141.445 Y165.104 E8.90113
G1 X141.511 Y166.02 E8.93168
G1 X141.526 Y166.683 E8.95373
G1 X141.525 Y179.753 E9.38844
G1 X141.516 Y180.479 E9.41259
G1 X141.465 Y181.416 E9.4438
G1 X141.333 Y182.344 E9.47498
G1 X141.124 Y183.259 E9.5062
G1 X140.837 Y184.151 E9.53736
G1 X140.475 Y185.017 E9.56858
G1 X140.04 Y185.848 E9.59978
G1 X139.537 Y186.639 E9.63095
G1 X138.968 Y187.385 E9.66216
G1 X138.337 Y188.079 E9.69336
G1 X137.65 Y188.717 E9.72454
G1 X136.911 Y189.294 E9.75572
G1 X136.125 Y189.806 E9.78692
G1 X135.298 Y190.249 E9.81813
G1 X134.437 Y190.621 E9.84932
G1 X133.547 Y190.917 E9.88052
G1 X132.636 Y191.137 E9.91169
G1 X132.112 Y191.227 E9.92937
G1 X131.58 Y191.303 E9.94725
G1 X129.639 Y191.554 E10.01234
G1 X127.184 Y191.942 E10.09501
G1 X124.656 Y192.414 E10.18055
G1 X122.23 Y192.94 E10.26311
G1 X119.828 Y193.532 E10.34539
G1 X117.346 Y194.218 E10.43104
G1 X114.93 Y194.96 E10.5151
G1 X112.563 Y195.761 E10.59821
G1 X110.216 Y196.631 E10.68146
G1 X107.854 Y197.583 E10.76616
G1 X105.553 Y198.586 E10.84965
G1 X102.833 Y199.861 E10.94956
G1 X102.222 Y200.126 E10.97171
G1 X101.723 Y200.324 E10.98957
G1 X100.53 Y200.719 E11.03137
G1 X99.857 Y200.892 E11.05448
G1 X99.341 Y201.009 E11.07208
G1 X98.097 Y201.217 E11.11403
G1 X97.298 Y201.29 E11.14071
G1 X96.662 Y201.328 E11.1619
G1 X96.012 Y201.348 E11.18353
G1 X86.677 Y201.352 E11.49402
G1 X85.971 Y201.342 E11.5175
G1 X85.505 Y201.325 E11.53301
G1 X84.788 Y201.277 E11.55691
G1 X84.303 Y201.231 E11.57312
G1 X83.118 Y201.053 E11.61297
G1 X82.367 Y200.885 E11.63857
G1 X81.863 Y200.756 E11.65587
G1 X80.695 Y200.387 E11.69661
G1 X79.971 Y200.101 E11.7225
G1 X79.22 Y199.772 E11.74977
G1 X78.289 Y199.339 E11.78392
G1 X77.366 Y198.896 E11.81797
G1 X75.071 Y197.872 E11.90156
G1 X72.709 Y196.899 E11.98652
G1 X70.381 Y196.015 E12.06935
G1 X68.021 Y195.193 E12.15247
G1 X65.616 Y194.432 E12.23637
G1 X63.198 Y193.742 E12.32
G1 X60.74 Y193.114 E12.40438
G1 X58.281 Y192.56 E12.48822
G1 X55.803 Y192.076 E12.57219
G1 X53.357 Y191.668 E12.65467
G1 X51.196 Y191.365 E12.72725
G1 X50.321 Y191.252 E12.75659
G1 X49.397 Y191.092 E12.78778
G1 X48.489 Y190.853 E12.81901
G1 X47.606 Y190.539 E12.85018
G1 X46.752 Y190.15 E12.88139
G1 X45.935 Y189.69 E12.91258
G1 X45.16 Y189.162 E12.94377
G1 X44.433 Y188.57 E12.97495
G1 X43.759 Y187.918 E13.00614
G1 X43.142 Y187.211 E13.03735
G1 X42.589 Y186.454 E13.06853
G1 X42.101 Y185.652 E13.09976
G1 X41.684 Y184.813 E13.13092
G1 X41.34 Y183.94 E13.16213
G1 X41.071 Y183.042 E13.19331
G1 X40.88 Y182.123 E13.22453
G1 X40.768 Y181.192 E13.25572
G1 X40.739 Y180.641 E13.27407
G1 X40.726 Y180.011 E13.29503
G1 X40.727 Y166.889 E13.73146
G1 X40.738 Y166.183 E13.75495
G1 X40.793 Y165.246 E13.78617
G1 X40.921 Y164.35 E13.81627
G1 X41.143 Y163.152 E13.8568
G1 X41.262 Y162.554 E13.87707
G1 X41.678 Y160.107 E13.95963
G1 X42.032 Y157.6 E14.04384
G1 X42.315 Y155.091 E14.12782
G1 X42.526 Y152.572 E14.21189
G1 X42.665 Y150.074 E14.29511
G1 X42.734 Y147.553 E14.37899
G1 X42.731 Y145.023 E14.46314
G1 X42.659 Y142.542 E14.54569
G1 X42.512 Y139.988 E14.63078
G1 X42.297 Y137.497 E14.71393
G1 X42.011 Y135 E14.79753
G1 X41.654 Y132.512 E14.88113
G1 X41.225 Y130.026 E14.96503
G1 X40.736 Y127.598 E15.04741
G1 X40.161 Y125.113 E15.13225
G1 X39.518 Y122.651 E15.21688
G1 X38.823 Y120.27 E15.29938
G1 X38.044 Y117.855 E15.38377
G1 X37.208 Y115.495 E15.46705
G1 X36.31 Y113.169 E15.54998
G1 X35.321 Y110.809 E15.63508
G1 X34.281 Y108.514 E15.71889
G1 X33.19 Y106.276 E15.8017
G1 X32.004 Y104.01 E15.88676
G1 X30.798 Y101.855 E15.9689
G1 X29.494 Y99.671 E16.0535
G1 X28.164 Y97.582 E16.13587
G1 X25.94 Y94.344 E16.26652
G1 X25.533 Y93.778 E16.28971
G1 X25.018 Y92.994 E16.32091
G1 X24.572 Y92.169 E16.3521
G1 X24.198 Y91.309 E16.38329
G1 X23.898 Y90.42 E16.4145
G1 X23.675 Y89.509 E16.44569
G1 X23.531 Y88.582 E16.4769
G1 X23.467 Y87.69 E16.50664
G1 X23.452 Y87.027 E16.5287
G1 X23.453 Y52.896 E17.6639
G1 X23.463 Y52.206 E17.68685
G1 X23.517 Y51.269 E17.71807
G1 X23.65 Y50.341 E17.74925
G1 X23.862 Y49.427 E17.78046
G1 X24.15 Y48.535 E17.81163
G1 X24.514 Y47.67 E17.84284
G1 X24.95 Y46.84 E17.87403
G1 X25.455 Y46.05 E17.90521
G1 X26.026 Y45.306 E17.93641
G1 X26.658 Y44.613 E17.9676
G1 X27.347 Y43.976 E17.99881
G1 X28.087 Y43.401 E18.02998
M204 S2000
G0 F7500 X28.471 Y43.62
M204 S500
G1 F1500 X29.253 Y43.133 E18.06062
G1 X29.806 Y42.842 E18.0814
G1 X30.483 Y42.511 E18.10647
G1 X31.758 Y41.909 E18.15337
G1 X34.036 Y40.756 E18.23828
G1 X36.265 Y39.549 E18.32259
G1 X38.419 Y38.301 E18.40539
G1 X40.609 Y36.949 E18.49099
G1 X42.682 Y35.587 E18.57349
G1 X44.783 Y34.118 E18.65876
G1 X46.802 Y32.621 E18.74235
G1 X48.8 Y31.05 E18.82689
G1 X50.732 Y29.441 E18.91052
G1 X52.655 Y27.744 E18.99582
G1 X54.468 Y26.051 E19.07832
G1 X56.755 Y23.777 E19.18559
G1 X57.581 Y22.934 E19.22484
G1 X58.253 Y22.305 E19.25546
G1 X58.759 Y21.897 E19.27708
G1 X58.968 Y21.739 E19.28579
G1 X59.726 Y21.217 E19.3164
G1 X60.221 Y20.924 E19.33554
G1 X60.488 Y20.776 E19.34569
G1 X61.312 Y20.365 E19.37631
G1 X62.033 Y20.069 E19.40224
G1 X63.005 Y19.751 E19.43625
G1 X63.495 Y19.626 E19.45307
G1 X63.84 Y19.547 E19.46484
G1 X64.745 Y19.381 E19.49545
G1 X65.757 Y19.29 E19.52924
G1 X66.725 Y19.258 E19.56145
G1 X133.745 Y19.257 E21.79055
G1 X134.595 Y19.268 E21.81882
G1 X135.514 Y19.321 E21.84944
G1 X136.425 Y19.454 E21.88006
G1 X137.321 Y19.665 E21.91068
G1 X138.195 Y19.953 E21.94128
G1 X139.042 Y20.316 E21.97193
G1 X139.853 Y20.751 E22.00254
G1 X140.623 Y21.255 E22.03315
G1 X141.347 Y21.824 E22.06378
G1 X142.019 Y22.454 E22.09442
G1 X142.634 Y23.139 E22.12503
G1 X143.187 Y23.875 E22.15565
G1 X143.674 Y24.656 E22.18627
G1 X144.091 Y25.477 E22.21689
G1 X144.436 Y26.331 E22.24753
G1 X144.705 Y27.211 E22.27813
G1 X144.897 Y28.112 E22.30877
G1 X145.01 Y29.025 E22.33937
G1 X145.038 Y29.557 E22.35709
G1 X145.052 Y30.175 E22.37765
G1 X145.051 Y109.315 E25.00986
G1 X145.04 Y110.022 E25.03337
G1 X144.985 Y110.941 E25.064
G1 X144.852 Y111.852 E25.09462
G1 X144.639 Y112.748 E25.12525
G1 X144.432 Y113.398 E25.14794
G1 X143.447 Y116.176 E25.24597
G1 X142.668 Y118.599 E25.33062
G1 X141.971 Y120.997 E25.41368
G1 X141.33 Y123.463 E25.49843
G1 X140.754 Y125.965 E25.58382
G1 X140.27 Y128.378 E25.66567
G1 X139.833 Y130.927 E25.75169
G1 X139.484 Y133.382 E25.83417
G1 X139.196 Y135.916 E25.91899
G1 X138.983 Y138.43 E26.00291
G1 X138.84 Y140.946 E26.08672
G1 X138.768 Y143.492 E26.17144
G1 X138.768 Y146.004 E26.25499
G1 X138.84 Y148.548 E26.33963
G1 X138.982 Y151.055 E26.42315
G1 X139.199 Y153.601 E26.50814
G1 X139.481 Y156.085 E26.59129
G1 X139.841 Y158.61 E26.67612
G1 X140.263 Y161.072 E26.7592
G1 X140.906 Y164.256 E26.86724
G1 X141.049 Y165.166 E26.89788
G1 X141.111 Y166.032 E26.92675
G1 X141.126 Y166.683 E26.94841
G1 X141.125 Y179.748 E27.38295
G1 X141.116 Y180.474 E27.4071
G1 X141.065 Y181.394 E27.43775
G1 X140.934 Y182.305 E27.46836
G1 X140.724 Y183.201 E27.49897
G1 X140.438 Y184.076 E27.52959
G1 X140.076 Y184.923 E27.56022
G1 X139.643 Y185.735 E27.59083
G1 X139.141 Y186.507 E27.62146
G1 X138.573 Y187.232 E27.65209
G1 X137.945 Y187.905 E27.68271
G1 X137.261 Y188.521 E27.71332
G1 X136.526 Y189.075 E27.74394
G1 X135.745 Y189.564 E27.77458
G1 X134.926 Y189.983 E27.80518
G1 X134.073 Y190.329 E27.8358
G1 X133.193 Y190.6 E27.86642
G1 X132.054 Y190.831 E27.90508
G1 X129.591 Y191.157 E27.98771
G1 X127.085 Y191.552 E28.07209
G1 X124.636 Y192.01 E28.15496
G1 X122.121 Y192.555 E28.24055
G1 X119.697 Y193.152 E28.32358
G1 X117.227 Y193.836 E28.40882
G1 X114.831 Y194.571 E28.49218
G1 X112.433 Y195.383 E28.57639
G1 X110.077 Y196.256 E28.65995
G1 X107.711 Y197.21 E28.7448
G1 X105.372 Y198.229 E28.82966
G1 X102.663 Y199.499 E28.92917
G1 X102.074 Y199.754 E28.95052
G1 X101.575 Y199.952 E28.96838
G1 X100.426 Y200.333 E29.00864
G1 X99.769 Y200.502 E29.0312
G1 X99.253 Y200.619 E29.0488
G1 X98.054 Y200.819 E29.08923
G1 X97.274 Y200.891 E29.11528
G1 X96.638 Y200.929 E29.13647
G1 X96.012 Y200.948 E29.1573
G1 X86.839 Y200.953 E29.4624
G1 X85.977 Y200.942 E29.49107
G1 X85.527 Y200.926 E29.50605
G1 X84.826 Y200.879 E29.52942
G1 X84.341 Y200.833 E29.54562
G1 X83.199 Y200.661 E29.58403
G1 X82.467 Y200.498 E29.60897
G1 X81.963 Y200.369 E29.62628
G1 X80.836 Y200.013 E29.66559
G1 X80.129 Y199.733 E29.69088
G1 X79.388 Y199.409 E29.71778
G1 X78.585 Y199.036 E29.74723
G1 X77.566 Y198.547 E29.78482
G1 X75.208 Y197.496 E29.87068
G1 X72.868 Y196.531 E29.95487
G1 X70.55 Y195.65 E30.03735
G1 X68.126 Y194.807 E30.12271
G1 X65.709 Y194.042 E30.20703
G1 X63.302 Y193.356 E30.29027
G1 X60.855 Y192.73 E30.37428
G1 X58.347 Y192.165 E30.45979
G1 X55.908 Y191.689 E30.54244
G1 X53.362 Y191.264 E30.62829
G1 X51.301 Y190.975 E30.69751
G1 X50.372 Y190.855 E30.72867
G1 X49.465 Y190.697 E30.75929
G1 X48.575 Y190.461 E30.78991
G1 X47.709 Y190.149 E30.82053
G1 X46.873 Y189.762 E30.85117
G1 X46.074 Y189.305 E30.88178
G1 X45.318 Y188.78 E30.9124
G1 X44.61 Y188.191 E30.94303
G1 X43.956 Y187.544 E30.97363
G1 X43.361 Y186.841 E31.00426
G1 X42.828 Y186.09 E31.03489
G1 X42.363 Y185.296 E31.06549
G1 X41.969 Y184.464 E31.09611
G1 X41.648 Y183.601 E31.12674
G1 X41.403 Y182.713 E31.15737
G1 X41.237 Y181.808 E31.18798
G1 X41.139 Y180.63 E31.22729
G1 X41.126 Y180.011 E31.24789
G1 X41.127 Y166.895 E31.68413
G1 X41.138 Y166.189 E31.70761
G1 X41.193 Y165.27 E31.73823
G1 X41.314 Y164.423 E31.76669
G1 X41.536 Y163.225 E31.80721
G1 X41.655 Y162.628 E31.82746
G1 X42.075 Y160.158 E31.91079
G1 X42.432 Y157.629 E31.99574
G1 X42.714 Y155.133 E32.07928
G1 X42.923 Y152.628 E32.16289
G1 X43.065 Y150.074 E32.24797
G1 X43.134 Y147.563 E32.33152
G1 X43.131 Y145.046 E32.41523
G1 X43.057 Y142.474 E32.50081
G1 X42.914 Y139.999 E32.58327
G1 X42.694 Y137.453 E32.66826
G1 X42.406 Y134.934 E32.75259
G1 X42.05 Y132.459 E32.83576
G1 X41.618 Y129.95 E32.92044
G1 X41.123 Y127.493 E33.0038
G1 X40.554 Y125.035 E33.08771
G1 X39.903 Y122.543 E33.17338
G1 X39.202 Y120.14 E33.25663
G1 X38.426 Y117.735 E33.34069
G1 X37.586 Y115.365 E33.42432
G1 X36.676 Y113.007 E33.50838
G1 X35.683 Y110.638 E33.59382
G1 X34.661 Y108.382 E33.67619
G1 X33.532 Y106.066 E33.76189
G1 X32.365 Y103.836 E33.8456
G1 X31.148 Y101.661 E33.9285
G1 X29.831 Y99.457 E34.01389
G1 X28.498 Y97.362 E34.09648
G1 X26.269 Y94.116 E34.22745
G1 X25.857 Y93.544 E34.25089
G1 X25.353 Y92.774 E34.2815
G1 X24.917 Y91.963 E34.31213
G1 X24.553 Y91.118 E34.34273
G1 X24.263 Y90.244 E34.37336
G1 X24.051 Y89.348 E34.40398
G1 X23.917 Y88.437 E34.43461
G1 X23.867 Y87.678 E34.45991
G1 X23.852 Y87.027 E34.48156
G1 X23.853 Y52.901 E35.6166
G1 X23.863 Y52.211 E35.63955
G1 X23.916 Y51.292 E35.67017
G1 X24.049 Y50.381 E35.70079
G1 X24.261 Y49.485 E35.73141
G1 X24.549 Y48.611 E35.76202
G1 X24.912 Y47.765 E35.79264
G1 X25.347 Y46.954 E35.82325
G1 X25.851 Y46.183 E35.85388
G1 X26.42 Y45.459 E35.88451
G1 X27.05 Y44.787 E35.91515
G1 X27.735 Y44.173 E35.94574
G1 X28.471 Y43.62 E35.97636
M204 S2000
G0 F7500 X28.855 Y43.845
M204 S500
G1 F1500 X29.982 Y43.202 E36.01952
G1 X30.791 Y42.807 E36.04946
G1 X31.944 Y42.264 E36.09185
G1 X34.213 Y41.115 E36.17644
G1 X36.45 Y39.904 E36.26105
G1 X38.649 Y38.63 E36.34558
G1 X40.808 Y37.296 E36.42999
G1 X42.925 Y35.906 E36.51422
G1 X45.011 Y34.447 E36.59889
G1 X47.042 Y32.942 E36.68296
G1 X49.057 Y31.357 E36.76823
G1 X50.987 Y29.749 E36.85178
G1 X52.891 Y28.069 E36.93624
G1 X54.756 Y26.329 E37.02107
G1 X57 Y24.097 E37.12634
G1 X57.866 Y23.213 E37.1675
G1 X58.526 Y22.597 E37.19753
G1 X59 Y22.216 E37.21776
G1 X59.209 Y22.058 E37.22647
G1 X59.953 Y21.546 E37.25651
G1 X60.415 Y21.274 E37.27434
G1 X60.682 Y21.126 E37.28449
G1 X61.49 Y20.723 E37.31453
G1 X62.271 Y20.412 E37.34249
G1 X63.129 Y20.132 E37.3725
G1 X63.929 Y19.937 E37.39989
G1 X64.818 Y19.775 E37.42995
G1 X65.774 Y19.689 E37.46187
G1 X66.293 Y19.667 E37.47915
G1 X66.725 Y19.658 E37.49352
G1 X133.745 Y19.657 E39.72261
G1 X134.589 Y19.668 E39.75069
G1 X135.491 Y19.721 E39.78074
G1 X136.384 Y19.853 E39.81076
G1 X137.262 Y20.064 E39.8408
G1 X138.118 Y20.352 E39.87084
G1 X138.945 Y20.714 E39.90086
G1 X139.737 Y21.149 E39.93092
G1 X140.488 Y21.651 E39.96096
G1 X141.191 Y22.218 E39.991
G1 X141.841 Y22.845 E40.02104
G1 X142.433 Y23.527 E40.05108
G1 X142.963 Y24.258 E40.08111
G1 X143.425 Y25.034 E40.11115
G1 X143.818 Y25.847 E40.14118
G1 X144.136 Y26.692 E40.17121
G1 X144.379 Y27.562 E40.20125
G1 X144.544 Y28.45 E40.23129
G1 X144.639 Y29.569 E40.26864
G1 X144.652 Y30.175 E40.28881
